X: 1
T: Bernadette's Reel
C: Steve Spence
%date:1982
R: reel
S: printed page in Concord Slow Scottish Session collection
S: PDF file from Concord Slow Jam collection
Z: 2015 John Chambers <jc:trillian.mit.edu>
M: C|
L: 1/8
K: Ador
|:\
"Am"EAAG A3B | cedB "D7"cDEF | "G"G2BG cGBG | G,B,DG BcBG |
y2| "Am"EAAG A3B | cedB "D7"cDEF | "G"G2BG cGBG |1 "Em"ABAG "Am"A4 :|2 "Em"ABAG "Am"A3 |]
g |\
"Am"aAAa "G"gedg | "Em"edBA "D7"BDEF | "G"G2BG cGBG | G,B,DG Bdeg |
y2| "Am"aAAa "G"gedg | "Em"edBA "D7"BDEF | "G"G2BG cGBG | "Em"ABAG "Am"A3 |]
g |\
"Am"aAAa "G"gedg | "Em"edBA "D7"BDEF | "G"G3D EDB,D | G,B,DG BcBG |
y2| "Am"EAAG A3B | cedB "D7"cDEF | "G"G2BG cGBG | "Em"ABAG "Am"A4 |]
%%text Most of the leading tone G notes were sharped in the original.
